X:1
T:James Gibb editions
T:Ade mit leid - Hofhaimer
T:#
%%score [ 1 2 3 4 ]
L:1/8
Q:1/4=180
M:none
K:F
V:1 treble nm="Soprano" snm="S"
V:2 treble-8 nm="Tenor I" snm="T I"
V:3 treble-8 nm="Tenor II" snm="T II"
V:4 bass nm="Bass" snm="B"
V:1
"^Ade mit Leid""^Paul Hofhaimer\n(1459-1537)" z16 | z4 d4 d4 d4 | (d12 c2 B2 | A4 B8 A2 G2 | %4
w: |A- de mit|leid * *||
w: |A- de mein|freud * *||
w: |A- de ge-|denk, * *||
 F8) z4 c4 | (c4 B2 A2 G4) c4 | (B6- A2 G8) | z4 G4 A4 A4 | D4 (A6 B2 c2 d2) | (e4 d6 =B2) c4 | %10
w: * ich|von * * * dir|scheid * *|dar- durch mein|herz un\- * * *|seg\- * * lich|
w: * der|ich * * * kein|zeit * *|zu seh- en|an ver\- * * *|driess * * möcht|
w: * dein|treu * * * nit|krenk * *|und halt recht|mass. Ver\- * * *|giss * * nit|
 d4 A4 B4 (c4- | c2 B2 A8 G4) | A8 z8 | A8 A4 A4 | (c6 B2) (A2 G2 F2 E2 | D2 C2) F8 E4 | F8 F4 D4 | %17
w: schmerz al stund emp\-||findt|und ist ent-|zündt * in * * *|* * ja- mers|we. * *|
w: han. Das ist mir||gwebnt,|und bin ell-|end: * in * * *|* * leid ich|ste. A- de,|
w: das, als du wol||weisst.|Dein treu mir|leist * hin- * * *|* * fur als|e. * *|
 E4 F4 z4 B4 | A4 F4 G4 A4 | (D4 G8) ^F4 | G16 |] %21
w: |dich lust mich keinr|freu\- * den|me.|
w: a- de on||||
w: ||||
V:2
 z4 d4 d4 d4 | d8 (d2 c2 B2 A2 | G4) (B8 A2 G2 | F8) z8 | z4 (F8 E2 D2) | (C4 F4 E4) C4 | %6
w: A- de mit|leid, mit * * *|* leid * *||ich * *|von * * dir|
w: A- de mein|freud, mein * * *|* freud, * *||der * *|ich * * kein|
w: A- de ge-|denk, ge\- * * *|* denk, * *||dein * *|treu * * nit|
 (D4 d4 B2 c2 d2 e2 | f4) d4 (f2 e2 d2 c2 | B4) A4 c8 | z4 G4 c4 c4 | f8 z4 F4 | (f6 e2) d8 | %12
w: scheid * * * * *|* dar- durch * * *|* mein herz|un- seg- lich|schmerz al|stund * emp-|
w: zeit * * * * *|* zu seh\- * * *|* en an|ver- driess möcht|han. Das|ist * mir|
w: krenk * * * * *|* und halt * * *|* recht mass.|Ver- giss nit|das, als|du * wol|
 d4 d4 (f6 ed) | (c6 d2) (e2 c2) f4 | e8 A4 c4 | z4 c4 c4 c4 | (A8 F8) | z4 c4 d6 e2 | f8 z4 c4 | %19
w: findt und ist * *|ent\- * zündt * in|ja- mers we.||||mich keinr|
w: gwebnt, und bin * *|ell\- * end: * in|leid ich ste.|A- de, a-|de *|on dich lust||
w: weisst. Dein treu * *|mir * leist * hin-|für als e.|||||
 (B4 _e4) d8 | d16 |] %21
w: freu\- * den|me.|
w: ||
w: ||
V:3
 z16 | z16 | z4 d4 d4 d4 | (d12 c2 B2 | A4) (B8 A2 G2 | F4 D4) E4 F4 | G8 z4 B4 | A4 B4 c4 F4 | %8
w: ||A- de mit|leid * *|` ich * *|* * von dir|scheid dar-|durch mein herz un-|
w: ||A- de mein|freud, * *|* der * *|* * ich kein|zeit zu|seh- en an ver-|
w: ||A- de ge-|denk, * *|* dein * *|* * treu nit|krenk und|halt recht mass. Ver-|
 (f12 e2 d2 | c4 d4) e8 | (d12 c2 B2 | A4) c4 B4 B4 | A16 | z8 A8 | A4 A4 (c2 B2 A2 G2 | %15
w: seg\- * *|* * lich|schmerz * *|* al stund emp-|findt|und|ist ent- zündt * * *|
w: driess * *|* * möcht|han. * *|* Das ist mir|gwebnt,|und|bin ell- end: * * *|
w: giss * *|* * nit|das, * *|* als du wol|weisst.|Dein|treu mir leist * * *|
 F4) A4 G4 G4 | F8 z4 B4 | G4 A4 B8 | z4 d4 c4 A4 | B4 c4 A4 A4 | G16 |] %21
w: * in ja- mers|we. *||on dich lust|mich keinr freu- den|me.|
w: * in leid ich|ste. A-|de, a- de||||
w: * hin- für als|e. *|||||
V:4
 z16 | z16 | z16 | z4 D,4 D,4 D,4 | (D,12 C,2 B,,2 | A,,4 B,,4 C,4 A,,4 | G,,8 z4 G,4 | %7
w: |||A- de mit|leid * *|* ich von dir|scheid dar-|
w: |||A- de mein|freud * *|* der ich kein|zeit zu|
w: |||A- de ge-|denks, * *|* dein treu nit|krenk und|
 D,4 G,4 F,8 | z4 D,4 A,4 A,4 | A,4 B,4) A,8 | D,4 (F,4 G,4 A,4) | (F,8 G,8) | D,8 D,4 D,4 | %13
w: durch mein herz|un- seg- lich|schmerz * al|stund emp\- * *|findt *|und ist ent-|
w: seh- en and|ver- driess möcht|han. * Das|ist mir * *|gwebnt *|und bin ell-|
w: halt recht mass.|Ver- giss nit|das, * als|du wol * *|weisst. *|Dein treu mir|
 (F,6 E,D, C,4 D,4 | A,,8) z4 A,,4 | B,,4 F,,4 C,8 | z4 D,4 D,4 B,,4 | (C,4 A,,4 G,,4) G,4 | %18
w: zündt * * * *|* in|ja- mers we.|||
w: end: * * * *|* in|leid ich ste.|A- de, a-|de * * on|
w: leist * * * *|* hin-|für als e.|||
 F,4 D,4 E,4 F,4 | (G,4 C,4) D,8 | G,,16 |] %21
w: dich lust mich keinr|freu\- * den|me.|
w: |||
w: |||

